dist/svgs/carbon-icons/svg/close-glyph.svg

<svg xmlns="http://www.w3.org/2000/svg" fill-rule="evenodd" viewBox="0 0 16 16"><path d="M8 0C3.6 0 0 3.6 0 8s3.6 8 8 8 8-3.6 8-8-3.6-8-8-8zm3.5 10.1l-1.4 1.4L8 9.4l-2.1 2.1-1.4-1.4L6.6 8 4.5 5.9l1.4-1.4L8 6.6l2.1-2.1 1.4 1.4L9.4 8l2.1 2.1z"/></svg>

<svg width="16px" height="16px" viewBox="0 0 16 16" version="1.1" xmlns="http://www.w3.org/2000/svg" xmlns:xlink="http://www.w3.org/1999/xlink" fill-rule="evenodd">
	<path d="M8,0 C3.6,0 0,3.6 0,8 C0,12.4 3.6,16 8,16 C12.4,16 16,12.4 16,8 C16,3.6 12.4,0 8,0 L8,0 Z M11.5,10.1 L10.1,11.5 L8,9.4 L5.9,11.5 L4.5,10.1 L6.6,8 L4.5,5.9 L5.9,4.5 L8,6.6 L10.1,4.5 L11.5,5.9 L9.4,8 L11.5,10.1 L11.5,10.1 Z" id="Shape" fill="#000000"></path>
</svg>
